X:11902
T:Tenpenny Bit, The
R:Jig
B:Tuneworks Tunebook (https://www.tuneworks.co.uk/)
G:Tuneworks
Z:Jon Warbrick <jon.warbrick@googlemail.com>
M:6/8
L:1/8
K:ADor
|: "Am"eAA eAA | "G"BAB GBd | "Am"eAA eAA | "G"def gfg | 
"Am"eAA eAA | "G"BAB GAB | "G"def ged | "Am"BAG A3 :|
|: "Am"eaa aga | "G"bag ged | "Am"eaa aga | "G"bgf g3 | 
"Am"eaa aga | "G"bag ged | "G"def ged | "Am"BAG A3 :| 